src/icons/svg/ubuntu.svg

<svg width="1536" height="1792" viewBox="0 0 1536 1792" xmlns="http://www.w3.org/2000/svg">
    <path d="M 640.01562 256 C 286.54488 256 0 542.53184 0 895.98438 C 7.5791225e-14 1249.4595 286.54037 1536 640.01562 1536 C 993.49088 1536 1280.0059 1249.4595 1280.0059 895.98438 C 1280.0059 542.52732 993.49088 256 640.01562 256 z M 849.4707 454.80664 C 862.73142 455.15163 876.09587 458.71566 888.38672 465.81641 C 927.76712 488.51623 941.22436 538.83299 918.50195 578.19531 C 895.80664 617.54859 845.47501 631.03295 806.11719 608.31055 C 766.75938 585.58815 753.27564 535.27517 775.99805 495.92188 C 791.62591 468.8727 820.29712 454.04766 849.4707 454.80664 z M 640.01562 542.48633 C 672.12142 542.48633 703.25253 546.79039 732.84766 554.82812 C 738.06315 588.26148 757.78252 619.12022 789.35547 637.34961 C 820.90584 655.57901 857.47732 657.23273 888.99609 645.07227 C 948.53856 704.14509 987.17852 784.25903 992.83203 873.33789 L 873.74805 875.2168 C 863.24029 755.32814 762.62722 661.3418 640.01562 661.3418 C 604.71281 661.3418 571.17511 669.17577 541.14648 683.12891 L 483.20312 579.07617 C 530.47225 555.65385 583.70179 542.48633 640.01562 542.48633 z M 443.98633 601.77539 L 505.12695 703.98242 C 444.78522 746.42436 405.3457 816.61401 405.3457 895.98438 C 405.3457 975.40893 444.78522 1045.5713 505.12695 1088.0449 L 443.98633 1190.252 C 373.16394 1142.9287 320.40769 1070.7825 298.15039 986.20117 C 324.48527 964.98697 341.36523 932.47417 341.36523 895.98828 C 341.36523 859.52497 324.48978 827.01241 298.15039 805.80273 C 320.40769 721.21687 373.16394 649.07158 443.98633 601.77539 z M 225.53516 813.71484 C 271.01159 813.71484 307.85352 850.55764 307.85352 895.98438 C 307.85352 941.42918 271.01159 978.28125 225.53516 978.28125 C 180.11292 978.28125 143.26953 941.4337 143.26953 895.98438 C 143.26953 850.55764 180.11292 813.71484 225.53516 813.71484 z M 873.74805 916.80469 L 992.83203 918.65234 C 987.17852 1007.7312 948.54307 1087.8474 888.99609 1146.9473 C 857.47732 1134.7869 820.90584 1136.4425 789.35547 1154.6719 C 757.77801 1172.8697 738.05864 1203.7295 732.84766 1237.1855 C 703.25253 1245.2368 672.11689 1249.5098 640.01562 1249.5098 C 583.69728 1249.5098 530.47225 1236.3545 483.20312 1212.9141 L 541.14648 1108.8613 C 571.17962 1122.8415 604.71731 1130.6719 640.01562 1130.6719 C 762.62723 1130.6719 863.23577 1036.6617 873.74805 916.80469 z M 845.04883 1172.6914 C 874.22381 1171.925 902.8842 1186.7395 918.50586 1213.7949 C 941.22827 1253.1527 927.74392 1303.484 888.39062 1326.2109 C 849.03282 1348.9062 798.72888 1335.418 776.00195 1296.0918 C 753.27955 1256.7385 766.76327 1206.4339 806.12109 1183.707 C 818.419 1176.6063 831.78747 1173.0398 845.04883 1172.6914 z"/>
</svg>

<svg xmlns="http://www.w3.org/2000/svg" width="1536" height="1792">
    <path d="M640.016 256C286.545 256 0 542.532 0 895.984 0 1249.46 286.54 1536 640.016 1536c353.475 0 639.99-286.54 639.99-640.016C1280.006 542.527 993.49 256 640.016 256zM849.47 454.807c13.26.345 26.625 3.909 38.916 11.01 39.38 22.7 52.837 73.016 30.115 112.378-22.695 39.354-73.027 52.838-112.385 30.116-39.358-22.723-52.841-73.036-30.119-112.39 15.628-27.048 44.3-41.873 73.473-41.114zm-209.455 87.68c32.105 0 63.237 4.303 92.832 12.341 5.215 33.433 24.935 64.292 56.507 82.522 31.55 18.229 68.122 19.883 99.641 7.722 59.543 59.073 98.183 139.187 103.836 228.266l-119.084 1.879c-10.508-119.889-111.12-213.875-233.732-213.875-35.303 0-68.84 7.834-98.87 21.787l-57.943-104.053c47.27-23.422 100.499-36.59 156.813-36.59zm-196.03 59.288 61.141 102.207c-60.342 42.442-99.781 112.632-99.781 192.002 0 79.425 39.44 149.587 99.781 192.06l-61.14 102.208c-70.823-47.323-123.58-119.47-145.837-204.05 26.335-21.215 43.215-53.728 43.215-90.214 0-36.463-16.875-68.976-43.215-90.185 22.258-84.586 75.014-156.731 145.836-204.028zm-218.45 211.94c45.476 0 82.318 36.843 82.318 82.27 0 45.444-36.842 82.296-82.319 82.296-45.422 0-82.265-36.847-82.265-82.297 0-45.426 36.843-82.27 82.265-82.27zm648.212 103.09 119.084 1.847c-5.653 89.08-44.289 169.195-103.836 228.295-31.519-12.16-68.09-10.504-99.64 7.725-31.578 18.198-51.297 49.057-56.508 82.514-29.595 8.05-60.731 12.324-92.832 12.324-56.319 0-109.544-13.156-156.813-36.596l57.943-104.053c30.034 13.98 63.571 21.81 98.87 21.81 122.611 0 223.22-94.01 233.732-213.866zm-28.7 255.886c29.176-.766 57.836 14.048 73.458 41.104 22.722 39.358 9.238 89.689-30.115 112.416-39.358 22.695-89.662 9.207-112.389-30.12-22.722-39.352-9.239-89.657 30.12-112.384 12.297-7.1 25.665-10.667 38.927-11.016z"/>
</svg>
